X:6
T:Les grands douleurs
T:(Basse dansse 6)
C:Tielman Susato
B:Tielman Susato: Danserye (1551) no. 6
R:Basse dance
Z:Transcribed by Frank Nordberg - http://www.musicaviva.com
F:http://abc.musicaviva.com/tunes/susato-tielman/susato-1551-06.abc
M:3/2
L:1/2
K:Ddor
V:1
EEE|C/B,/C/D/E|F>E D/C/|DDC|F>E D/C/|DE>D|D2^C|D2z:|
V:2
CCC|A,2G,|F,F,F,/E,/|D,2E,/C,/|C,F,/G,/A,|B,CA,|G,A,2|A,2z:|
V:3
G,G,G,|F,2E,|D,/E,/F,/G,/A,|F,G,A,|A,2F,|F,G,F,|D,E,2|D,2z:|
V:4
C,C,C,|F,,/G,,/A,,/B,,/C,|D,>C,A,,|B,,2A,,|F,,D,,D,|G,,C,D,|B,,A,,2|D,,2z:|
%
V:1
A,A,A,|C/B,/C/D/C|CDE|FCA,|F>E D/C/|DE>D|D2^C|D2z|
V:2
F,F,F,|A,2A,|A,D,G,|F,/G,/A,/G,/F,/D,/|D2A,|A,CA,|G,A,2|A,2z|
V:3
D,D,D,|E,2E,|F,2E,|D,E,F,/G,/|A,>G, F,/E,/|F,G,F,|D,E,2|D,2z|
V:4
D,,D,,D,,|A,,2A,,|A,,_B,,C,|D,A,,D,|D,2D,|D,C,D,|_B,,A,,2|D,2z|
%
V:1
EEE|C/B,/C/D/E|E/F/G/F/E/D/|EEE|G/F/E/D/C/B,/|A,F/E/D/C/|B,/A,/B,2|A,2z|
V:2
CCC|G,2C,|G,2G,|CCC|B,B,A,|A,A,/G,/F,/E,/|D,/C,/E,2|E,2z|
V:3
G,G,G,|E,E,E,|C,/D,/E,/F,/G,|C,>B,, C,/D,/|E,/F,/G,/F,/E,/D,/|E, D,/E,/ F,/G,/|A,2G,|A,2z|
V:4
C,C,C,|C,>B,,A,,|E,>D, C,/B,,/|A,,A,,A,,|E,,2A,,|A,,D,,>E,,|F,,E,,2|A,,2z|
%
V:1
A,A,A,|C/B,/C/D/C|CDE|FCA,|F>E D/C/|DE>D|D2^C|D2z|
V:2
D,D,D,|C,2A,|A,D,G,|F,/G,/A,/G,/F,/D,/|D2A,|A,CA,|G,A,2|A,2z|
V:3
F,F,F,|E,2E,|F,2E,|D,E,F,/G,/|A,>G, F,/E,/|F,G,F,|D,E,2|D,2z|
V:4
D,,D,,D,,|A,,2A,,|A,,_B,,C,|D,A,,D,|D,2D,|D,C,D,|_B,,A,,2|D,,2z|
%
V:1
A,A,A,|C/B,/C/D/C|CDE|FCA,|F>E D/C/|DE>D|D2^C|D3|]
V:2
F,F,F,|A,2A,|A,D,G,|F,/G,/A,/G,/F,/D,/|D2A,|A,CA,|G,A,2|A,3|]
V:3
D,D,D,|E,2E,|F,2E,|D,E,F,/G,/|A,>G, F,/E,/|F,G,F,|D,E,2|D,3|]
V:4
D,,D,,D,,|A,,2A,,|A,,_B,,C,|D,2D,|D,A,,D,|D,C,D,|_B,,A,,2|D,,3|]
W:
W:
W:  From Musica Viva - http://www.musicaviva.com
W:  the Internet center for free sheet music downloads.
